X:1
T: The girl who broke my heart
C:
R:Reel
Q: 232
K:Am
M:4/4
L:1/8
|:ed|cA GA ED D2|EA A^G AB cd|e^f ge dB AG|EG GF G2 ed|
cA GA ED D2|EA A^G AB cd|e^f ge dB AG|EA A^G A2:|
|:E^G|A2 ce ae cA|G2 Bd gd BG|A2 ce ae ce|d^c de dB GB|
A2 ce ae cA|G2 Bd gd BG|AB ce dB AG|EA A^G A2:|
